X:1
T: Lord Drummond
C:
R:Reel
Q: 232
K:D
M:4/4
L:1/8
|:Ad dc B2 Ad|BA Bd ed ef|Ad dc B2 AF|ED EF D1/2D1/2D D2|
Ad dc B2 Ad|BA Bd ed ef|Ad dc B2 AF|ED EF D1/2D1/2D D2|
ab af de fd|ga gf ef ge|ab af de fd|eg fe d1/2d1/2d d2|
ab af de fd|ga gf ef ge|ab af de fd|eg fe d1/2d1/2d d2:|
